!!!!SEGMENT: pl-wnifc--2367-n_mikuli-karol--mazourka-op-4.krn
!!!cenid: 18xx:3885
!!!COM: Mikuli, Karol
!!!COM-rismID: pe106110
!!!CDT: 1819-1897
!!!CNT:
!!!OTL: Mazourka op. 4
!!!PDT: 1860
!!!AGN:
!!!SMS-siglum: PL-Wnifc
!!!SMS-shelfmark: 2367/n
!!!SMS-shelfwork: W
!!!SMS-variant:
!!!SMS-altvar:
!!!NIFC-rismSourceID: 300605259
!!!NIFC-islandoraID: nifc:211905
!!!URL-pdf-islandora: https://repozytorium.nifc.pl/islandora/object/nifc%3A211905/datastream/PDF/view
!!!URL-scan: https://polish.musicsources.pl/pl/lokalizacje/galeria/druki-muzyczne/16813 @EN{Scan on Polish Music Herritage in Open Access Website} @PL{Skany w portalu Dziedzictwo Muzyki Polskiej w otwartym dostępie}
!!!ONB-nifc:
!!!AIN: 2 piano
!!!key: f
**kern	**dynam	**kern	**dynam
*part2	*part2	*part1	*part1
*staff2	*	*staff1	*
*I"Piano.	*	*I"Piano.	*
*I'pf	*	*I'pf	*
*ICklav	*	*ICklav	*
*Ipiano	*	*Ipiano	*
*clefF4	*	*clefG2	*
*k[b-e-a-d-]	*	*k[b-e-a-d-]	*
*f:	*	*f:	*
*M3/4	*	*M3/4	*
=1	=1	=1	=1
.	.	(>8qcc/	p
*^	*	*	*
4r	2FF\	.	8ff\L)	.
.	.	.	16r	.
.	.	.	(16ff\Jk	.
4C/ 4A-	.	.	4cc\)	.
.	.	.	(16qqcc/LL	.
.	.	.	16qqee-/JJ)	.
4BB-/ 4G	4r	.	4dd-^\	.
*v	*v	*	*	*
=2	=2	=2	=2
4FF/	.	(2cc\	.
4C\ 4A-	.	.	.
4FF/	.	8b-/L	.
.	.	8a-/J	.
=3	=3	=3	=3
.	.	8qg/	.
*^	*	*	*
!LO:N:vis=2	!	!	!	!
4EEn/	2EE\	.	8cc\)	.
.	.	.	16r	.
.	.	.	(16cc\	.
4C/ 4G	.	.	4g/)	.
.	.	.	(16qqg/LL	.
.	.	.	16qqb-/JJ)	.
4BBn/	4FF\	.	4a-^</	.
=4	=4	=4	=4	=4
4EEn/	4EE\	.	(2g/	.
4C\ 4G	4ryy	.	.	.
4EE-X/	4ryy	.	8g/L	.
.	.	.	8g-X/J)	.
*v	*v	*	*	*
=5	=5	=5	=5
.	.	(>16qqf/LL	<
.	.	16qqgn/JJ	.
4DDn/	.	8f/L	.
.	.	8en/	.
4Dn\ 4A- 4Bn	.	8f/	.
.	.	8g/	.
4DD/	.	8a-/	.
.	.	8b-X/J	[[
!!LO:LB:g=original	!	!
=6	=6	=6	=6
4EE-/	.	8bn\L)	.
.	.	16r	.
.	.	([<16cc\Jk	.
4E-\ 4A- 4e-	.	4.cc\] 4.ee- 4.ccc	sf
(4EE-/	.	.	.
.	.	8cc\ 8aa-	.
=7	=7	=7	=7
8E-\)	.	8ee-\L) 8gg	.
8r	.	16r	.
.	.	[16dd-\Jk [16ff	.
4E-\ 4A- 4d-	.	4f^<\ 4dd-] 4ff]	.
4E-\ 4B- 4d-	.	4g^<\ 4dd-	.
=8	=8	=8	=8
*	*	*^	*
*	*	*	*^	*
4AA-/	.	2.cc^</	4a-\	4ryy	.
4E-\ 4A- 4c	.	.	4r	4ryy	.
4GG\ 4G	.	.	4en/	4B-\	.
*	*	*v	*v	*v	*
=9	=9	=9	=9
.	.	(<8qcc/	p
*^	*	*^	*
4C/ 4A-	2FF\	.	8ff/L)	2f\	.
.	.	.	16r	.	.
.	.	.	(<16ff'/Jk	.	.
4C/ 4A-	.	.	4cc/)	.	.
.	.	.	(16qqcc/LL	.	.
.	.	.	16qqee-/JJ)	.	.
4BB-/ 4G	4r	.	4dd-/	4en\	.
*v	*v	*	*	*	*
=10	=10	=10	=10	=10
(4FF/	.	[4cc/	8f\	.
.	.	.	8r	.
*	*	*Xtuplet	*	*
4C\) 4A-	.	12cc'/L]	4ryy	>
.	.	(12cc'/	.	.
.	.	12bn'/J	.	.
4FF/	.	12b-X'/L	4ryy	.
.	.	12an'/	.	.
.	.	12a-X'/J	.	.
*	*	*v	*v	*
=11	=11	=11	=11
.	.	8qg/	]
*^	*	*	*
4r	2EEn\	.	8cc\L)	.
.	.	.	16r	.
.	.	.	(16cc\Jk	.
4C/ 4G	.	.	4g/	.
4BBn/	4FF\	.	4a-^/)	.
*v	*v	*	*	*
!!LO:LB:g=original	!	!
=12	=12	=12	=12
(4EEn/	.	[4g/	.
8C\) 8G	.	(16g/LL]	.
.	.	16cc/)	.
8r	.	(16bn'/	>
.	.	16b-X'/JJ	.
8r	.	16an'/LL	.
.	.	16a-X'/	.
16r	.	16g'/	.
16EE-X/	.	16g-X'/JJ	]]
=13	=13	=13	=13
.	.	16qqf/LL	.
.	.	16qqgn/JJ	.
8DDn/	.	8f/L)	<
8r	.	(8en/	.
4Dn\ 4A- 4Bn	.	8f/	.
.	.	8g/	.
8r	.	8a-/	.
16r	.	8b-X/J	[[
16DD-X/	.	.	.
=14	=14	=14	=14
8CC/	.	8bn\L)	.
8r	.	16r	.
.	.	[16cc\Jk	.
2A-\ 2c 2f 2a-	.	(4.cc\] 4.aa- 4.ccc	>
.	.	8cc\ 8aa-	]]
=15	=15	=15	=15
*^	*	*	*
8CC/L	4ryy	.	8bn\L) 8aa-	pp
16r	.	.	16r	.
*clefG2	*	*	*	*
[16c/Jk	.	.	(16b\Jk 16gg	.
4a-/	2c\]	.	4b\ 4ddn	.
4g/	.	.	4b-X\ 4een	.
*v	*v	*	*	*
*clefF4	*	*	*
=16	=16	=16	=16
4FF/	.	4a-\) 4ff	.
4F\ 4c 4a-	.	4ff\ 4ccc 4fff	.
4r	.	4r	.
!!LO:LB:g=original	!	!
=17||	=17||	=17||	=17||
.	.	(>8qcc/ 8qee-	p
*^	*	*^	*
4AAA-/	2ryy	.	8ccc\L)	2ryy	.
.	.	.	16r	.	.
.	.	.	(16ccc\Jk	.	.
4E-\ 4A- 4e-	.	.	4cc\) 4ee-	.	.
(8Bn/L	4A-\	.	(8ff/L	4a-\	.
8c/J)	.	.	24a-/L 24ff	.	.
.	.	.	24gg/	.	.
.	.	.	24ff/JJ	.	.
*v	*v	*	*	*	*
*	*	*v	*v	*
=18	=18	=18	=18
4E-\ 4d-	.	8g\L) 8ee-	.
!	!	!LO:TX:i:b:t=leggiero	!
.	.	(8a-'\ 8ff	<
4EE-/ 4E-	.	8b-'\ 8gg	.
.	.	8cc'\ 8aa-	.
4E-\ 4G	.	8dd-'\ 8bb-	.
.	.	8ddn'\J 8bbn	[[
=19	=19	=19	=19
*^	*	*^	*
4AA-\ 4A-	2ryy	.	8ee-'\L) 8ccc	2ryy	p
.	.	.	16r	.	.
.	.	.	(16ccc\Jk	.	.
4E-\ 4A- 4e-	.	.	4cc\) 4ee-	.	.
(8Bn/L	4A-\	.	(8ff/L	4a-\ 4ff	.
8c/J)	.	.	24a-/L 24ff	.	.
.	.	.	24gg/	.	.
.	.	.	24ff/JJ	.	.
*v	*v	*	*	*	*
*	*	*v	*v	*
=20	=20	=20	=20
4E-\ 4d-	.	8g\L) 8ee-	.
!	!	!LO:TX:b:i:t=leggiero	!
.	.	(8a-'\ 8ff	<
4EE-/ 4E-	.	8b-'\ 8gg	.
.	.	8cc'\ 8aa-	.
4E-\ 4G	.	8dd-'\ 8bb-	.
.	.	8ddn'\J 8bbn	[[
=21	=21	=21	=21
*	*	*^	*
4AA-\ 4A-	.	8ee-'\L) 8ccc	4ryy	.
.	.	16r	.	.
.	.	(16ccc\Jk	.	.
4A-\ 4a-	.	4ee-/)	4cc\	.
4A-\ 4g-X	.	(4een/	4cc\	.
*	*	*v	*v	*
=22	=22	=22	=22
4DD-/	.	8dd-\L) 8ff	.
.	.	16r	.
.	.	([<16ff\Jk	sf
2F\ 2A- 2d- 2f	.	4.ff^<\] 4.ddd-	.
.	.	8ee-\ 8ccc	.
*clefG2	*	*	*
!!LO:PB:g=original	!	!
=23	=23	=23	=23
.	.	16qqbb-/LL	.
(8qc/ 8qcc	.	16qqccc/JJ	.
*clefG2	*	*	*
8e-/L) 8g	.	8dd-\L) 8bb-	.
16r	.	16r	.
[16e-/Jk 16f#X	.	(16cc\Jk 16aan	<
4e-/] 4g	.	4dd-\ 4bb-	.
4e-/ 4g	.	4dd-\) 4bbn	[[
=24	=24	=24	=24
*	*	*^	*
8A-/ 8e- 8a-	.	[2ccc/	2.cc\	.
*clefF4	*	*	*	*
(8AA-\L	.	.	.	.
8E-\	.	.	.	.
8A-\	.	.	.	.
8c\	.	8.ccc/L]	.	.
8e-\J)	.	.	.	.
.	.	16ee-/Jk	.	.
=25	=25	=25	=25	=25
*^	*	*	*	*
(4a-/	2.A-\	.	8ccc/L	4cc\	.
.	.	.	16r	.	.
.	.	.	(<16ccc/Jk	.	.
4g/	.	.	4ee-/)	4cc\	.
4g-X/)	.	.	(4een/	4cc\	.
*v	*v	*	*	*	*
*	*	*v	*v	*
=26	=26	=26	=26
4DD-/	.	8.dd-\L) 8.ff	.
.	.	([16ff\Jk	.
!	!	!	!LO:HP:b:t=dim. molto
2F^\ 2A- 2d- 2f	.	4.ff\] 4.ddd-	sf >
.	.	8ee-\) 8ccc	>
=27	=27	=27	=27
*	*	*^	*
4GG/	.	(8.bb-M/L	8.dd-\L	.
.	.	16aa-/Jk	16cc\Jk	.
4G\ 4d-	.	4gg/	4b-\	.
4G\ 4dn	.	4ff/)	4bn\	]]
*	*	*v	*v	*
=28	=28	=28	=28
.	.	(>8qcc/ 8qeen	.
*^	*	*	*
4C/	4ryy	.	8ccc\L)	pp
.	.	.	16r	.
.	.	.	(16ccc\Jk	.
*clefG2	*	*	*	*
(4en/ 4g	2c\	.	[4cc\)	.
*	*	*	*tuplet	*
!	!	!	!LO:TUP:a:problem:klamra łukowa i cyfra	!
4f/) 4a-	.	.	24cc\LL]	.
.	.	.	24dd-\	.
.	.	.	24ee-X\	.
!	!	!	!LO:TUP:a:problem:klamra łukowa i cyfra	!
.	.	.	24ff\	.
.	.	.	24ee-\	.
.	.	.	24dd-\JJ	.
*clefF4	*	*	*Xtuplet	*
!!LO:LB:g=original	!	!	!
=29	=29	=29	=29	=29
.	.	.	(>8qcc/	.
4CC/	4ryy	.	8ccc\L)	.
.	.	.	16r	.
.	.	.	(16ccc\Jk	.
*clefG2	*	*	*	*
(4en/ 4g	2c\	.	[4cc\)	.
4dn/) 4f	.	.	24cc\LL]	.
.	.	.	24ff\	.
.	.	.	24gg\	.
.	.	.	24aa-\	.
.	.	.	24gg\	.
.	.	.	24ff\JJ	.
*clefF4	*	*	*	*
=30	=30	=30	=30	=30
.	.	.	(>8qeen/	.
4C/	4ryy	.	8ccc\L)	.
.	.	.	16r	.
.	.	.	(16ccc\Jk	.
*clefG2	*	*	*	*
!	!	!	!LO:TX:b:i:t=sempre	!
(4en/ 4g	2c\	.	[4cc\)	.
4dn/) 4f	.	.	24cc\LL]	pp
.	.	.	(24dd-\	.
.	.	.	24ee-X\	.
.	.	.	24ff\	.
.	.	.	24ee-\	.
.	.	.	24dd-\JJ)	.
*clefF4	*	*	*	*
=31	=31	=31	=31	=31
.	.	.	(>8qcc/	.
4CC/	4ryy	.	8ccc\L)	.
.	.	.	16r	.
.	.	.	(16ccc\Jk	.
*clefG2	*	*	*	*
(4en/ 4g	[2c\	.	[4cc\)	.
4dn/) 4f	.	.	24cc\LL]	.
.	.	.	(24ff\	.
.	.	.	24gg\	.
.	.	.	24aa-\	.
.	.	.	24gg\	.
.	.	.	24ff\JJ)	.
*v	*v	*	*	*
=32	=32	=32	=32
.	.	(>8qeen/	.
8c/] 8en 8g	.	8ccc\L)	.
8r	.	16r	.
.	.	(16ccc\Jk	.
*clefF4	*	*	*
!	!	!	!LO:TX:t=cresc. un poco:dur=4e4sq:ext=ud:problem:text with extention lines
4CC/	.	8.cc\L)	<
.	.	(16dd-\Jk	.
*clefG2	*	*	*
[4c/	.	8.ccc\L)	.
.	.	(16ccc\Jk	.
!!LO:LB:g=original	!	!
=33	=33	=33	=33
*^	*	*	*
(4f/ 4a-	2.c\]	.	8.ddn\L)	.
.	.	.	(16ee-\Jk	.
4f#X/ 4an	.	.	4ccc\)	.
.	.	.	(8qqeen/ 8qqccc	.
4g/) 4b-	.	.	4ccc\) 4cccc	.
*clefF4	*	*	*	*
=34	=34	=34	=34	=34
.	.	.	(>8qcc/	.
4r	2FF\	.	8ff\L)	p
.	.	.	16r	.
.	.	.	(16ff\Jk	.
4C/ 4A-	.	.	4cc\	.
.	.	.	16qqcc/LL	.
.	.	.	16qqee-/JJ	.
4BB-/ 4G	4r	.	4dd-\)	.
*v	*v	*	*	*
=35	=35	=35	=35
4FF/	.	(2cc\	.
4C\ 4A-	.	.	.
4FF/	.	8b-\L	.
.	.	8a-\J	.
=36	=36	=36	=36
.	.	8qg/	.
*^	*	*	*
4r	2EEn\	.	8cc\L)	.
.	.	.	16r	.
.	.	.	(16cc\Jk	.
4C/ 4G	.	.	4g/	.
.	.	.	16qqg/LL	.
.	.	.	16qqb-/JJ	.
4BBn/	4FF\	.	4a-/	.
*v	*v	*	*	*
=37	=37	=37	=37
4EEn/	.	[2g/	.
4C\ 4G	.	.	.
4EE-X/	.	8g/L]	.
.	.	8g-X/J	.
=38	=38	=38	=38
.	.	16qqf/LL	<
.	.	16qqgn/JJ	.
4DDn/	.	16f/KL)	.
.	.	16r	.
.	.	(8en'/	.
4Dn\ 4A- 4Bn	.	8f'/	.
.	.	8g'/	.
4DD/	.	8a-'/	.
.	.	8b-X'/J)	[[
=39	=39	=39	=39
4EE-/	.	8bn\L	.
.	.	16r	.
.	.	([<16cc\Jk	.
4E-\ 4A- 4e-	.	4.cc\] 4.ee- 4.ccc	.
(<4EE-/	.	.	.
.	.	8cc\) 8aa-	.
!!LO:LB:g=original	!	!
=40	=40	=40	=40
8E-\)	.	8ee-\L 8gg	.
8r	.	16r	.
.	.	[16dd-\Jk [16ff	.
4E-\ 4A- 4d-	.	4f^<\ 4dd-] 4ff]	.
4E-\ 4B- 4d-	.	4g^<\ 4dd-	.
=41	=41	=41	=41
*	*	*^	*
*	*	*	*^	*
4AA-/	.	2.cc^</	4a-\	4ryy	.
4E-\ 4A- 4c	.	.	4r	4ryy	.
4GG/ 4G	.	.	4en/	4B-\	.
*	*	*v	*v	*v	*
=42	=42	=42	=42
.	.	(<8qcc/	.
*^	*	*^	*
4C/ 4A-	2FF\	.	8ff/L)	2f\	.
.	.	.	16r	.	.
.	.	.	(<16ff/Jk	.	.
4C/ 4A-	.	.	4cc/)	.	.
.	.	.	(16qqcc/LL	.	.
.	.	.	16qqee-/JJ)	.	.
4BB-/ 4G	4r	.	4dd-/	4en\	.
*v	*v	*	*	*	*
=43	=43	=43	=43	=43
4FF/	.	[4cc/	8f\	.
.	.	.	8ryy	.
*	*	*tuplet	*	*
*	*	*rscale:2	*	*
4C\ 4A-	.	(44%2cc\LL]	2ryy	.
.	.	44%2ff\	.	.
.	.	44%2een\	.	.
.	.	44%2ee-X\	.	.
.	.	44%2ddn\	.	.
.	.	44%2dd-X\	.	>
4FF/	.	.	.	.
.	.	44%2cc\	.	.
.	.	44%2bn\	.	.
.	.	44%2b-X\	.	.
.	.	44%2an\	.	]
.	.	44%2a-X\JJ	.	.
*	*	*rscale:1	*	*
*	*	*v	*v	*
=44	=44	=44	=44
.	.	8qg/	.
*^	*	*	*
4r	2EEn\	.	8cc\L)	.
.	.	.	16r	.
.	.	.	(16cc\Jk	.
4C/ 4G	.	.	4g/)	.
.	.	.	(16qqg/LL	.
.	.	.	16qqb-/JJ	.
4BBn/	4FF\	.	4a-/)	.
*v	*v	*	*	*
!!LO:LB:g=original	!	!
=45	=45	=45	=45
4EEn/	.	[4g/	.
8C\ 8G	.	(72%4g/LL]	.
.	.	72%4g/	.
.	.	72%4cc/	.
8r	.	.	.
.	.	72%4bn/JJ	.
.	.	72%4b-X/LL	.
8.r	.	.	.
.	.	72%4an/	.
.	.	72%4a-X/	.
.	.	72%4g/	.
16EE-	.	.	.
.	.	72%4g-X/JJ	.
=46	=46	=46	=46
4DDn/	.	16f/KL)	.
.	.	16r	.
.	.	(<8en'/	.
4Dn\ 4A- 4Bn	.	8f'/	<
.	.	8g'/	.
8.r	.	8a-'/	.
.	.	8b-X'/J	[[
16DD-X/	.	.	.
=47	=47	=47	=47
4CC/	.	8bn`\L)	.
.	.	16r	.
.	.	[<16cc\Jk	.
2A-\ 2c 2f 2a-	.	(4.cc\] 4.aa- 4.ccc	.
.	.	8cc\ 8aa-	.
=48	=48	=48	=48
*^	*	*	*
8CC/L	4ryy	.	8bn\L) 8aa-	>
*clefG2	*	*	*	*
16r	.	.	16r	.
[16c/Jk	.	.	(16b\Jk 16gg	.
4a-/	2c\]	.	4b\ 4ddn	] pp
4g/	.	.	4b-X\ 4een	.
*v	*v	*	*	*
*clefF4	*	*	*
=49	=49	=49	=49
4FF/	.	4a-\) 4ff	.
4F\ 4c 4f	.	4ff\ 4ccc 4fff	.
4r	.	4r	.
!!LO:PB:g=original	!	!
=50||	=50||	=50||	=50||
*k[b-]	*	*k[b-]	*
!	!	!LO:TX:a:i:t=semplice	!
(<8qBBn/	.	.	.
*^	*	*	*
2.C/)	2.FF\	.	4r	pp
.	.	.	(8qBn/	.
.	.	.	[2A/) [2c [2f	.
=51	=51	=51	=51	=51
(<8qBBn/	.	.	.	.
2.C/)	2.FF\	.	4A/] 4c] 4f]	.
.	.	.	(8qBn/	.
.	.	.	2A/) 2c 2f	.
*v	*v	*	*	*
=52	=52	=52	=52
!	!	!LO:TX:a:i:t=espressivo	!
(4F\ 4c	.	(4f/ 4a	.
4.A\ 4.c	.	4.f^/ 4.cc	.
8F\ 8c	.	8f/ 8a	.
=53	=53	=53	=53
.	.	(8qa/	.
8A\L 8c	.	8e/L) 8g	.
[8A\J [8c	.	[8f/J	.
2A\]) 2c]	.	2f/])	.
=54	=54	=54	=54
(<8qBBn/	.	.	.
*^	*	*	*
2.C/)	2.FF\	.	4r	pp
.	.	.	(8qBn/	.
.	.	.	[2A/) [2c [2f	.
=55	=55	=55	=55	=55
(<8qBBn/	.	.	.	.
2.C/)	2.FF\	.	4A/] 4c] 4f]	.
.	.	.	(8qBn/	.
.	.	.	2A/) 2c 2f	.
*v	*v	*	*	*
!!LO:LB:g=original	!	!
=56	=56	=56	=56
4DD/ 4D	.	(8.f/L	<
.	.	16f/Jk	.
!	!	!LO:TX:b:i:t=rit.	!
4F\ 4A 4d	.	4.dd\ 4.ff	[
4AAA/ 4AA	.	.	.
.	.	8cc\ 8ee	.
.	.	8qqf/	.
=57	=57	=57	=57
.	.	[16qqf/LL	.
.	.	16qqcc/JJ 16qqee	.
*	*	*^	*
8BBB-/L 8BB-	.	8b-/L 8dd	[2f\]	>
[8FFF/J [8FF	.	[8a/J [8cc	.	.
2FFF/] 2FF]	.	2a/]) 2cc]	.	.
.	.	.	8.f\L]	]
.	.	.	[16e^>\Jk	.
=58	=58	=58	=58	=58
*^	*	*	*	*
!	!	!	!LO:TX:a:t=a tempo	!	!
4EE/	4ryy	.	8.a/L 8.cc	2.e\_	.
.	.	.	(16a/Jk 16cc	.	.
4e/	[2E\	.	4cc/ 4ee	.	.
4d#X/	.	.	4a/ 4cc	.	.
*	*	*	*v	*v	*
=59	=59	=59	=59	=59
.	.	.	16qqbn/LL	.
.	.	.	16qqcc/JJ	.
4dn/	8.E\L]	.	8e/L]) 8g#X 8b	.
.	.	.	16r	.
.	[16E\Jk	.	(>16f#X/Jk 16a	.
4d/	4E\]	.	4g#/ 4b	.
4c/	4A\	.	4a/ 4cc	.
*v	*v	*	*	*
=60	=60	=60	=60
8CC/	.	16fn/KL) 16a	.
.	.	16r	.
8r	.	8A</ 8c<	.
(4.c^\	.	8c/ 8f	<
.	.	8f/ 8a	.
.	.	8a/ 8cc	.
8C/)	.	8a/J 8ff	[[
=61	=61	=61	=61
8c\L	.	8cc\L 8aa	.
16r	.	16r	.
(16c\Jk 16e	.	(16b-\Jk 16gg	.
2F\) 2f	.	2a\) 2ff	.
*clefG2	*	*	*
!!LO:LB:g=original	!	!
=62:|!	=62:|!	=62:|!	=62:|!
8.d/L 8.f	.	8.dd\L 8.ff	f
16d/Jk 16f	.	16dd\Jk 16ff	.
4.f/ 4.a	.	4.ff\ 4.aa	.
8d/ 8f	.	8dd\ 8ff	.
=63	=63	=63	=63
.	.	(16qqee/LL	.
.	.	16qqff/JJ)	.
8A/L 8e	.	8cc#X\L 8ee	.
8d/J 8f	.	8bn\J 8dd	.
4A/ 4e	.	4cc#\ 4ee	.
4d/ 4f	.	4dd\ 4ff	.
=64	=64	=64	=64
8.B-/L 8.d	.	8.b-X\L 8.dd	.
16B-/Jk 16d	.	16b-\Jk 16dd	.
4.d/ 4.f	.	4.dd\ 4.ff	.
8B-/ 8d	.	8b-\ 8dd	.
*clefF4	*	*	*
=65	=65	=65	=65
.	.	(16qqcc/LL	.
.	.	16qqdd/JJ)	.
8F\L 8c	.	8a/L 8cc	.
8B-\J 8d	.	8g/J 8b-	.
4F\ 4c	.	4a\ 4cc	.
4F#X\ 4d	.	4a\ 4dd	.
=66	=66	=66	=66
8.G\L 8.d	.	8.g/L 8.b-	.
16Fn\Jk 16d	.	16g/Jk 16b-	.
4.E\ 4.c	.	4.g/ 4.cc	.
8F\ 8c	.	8f/ 8a	.
=67	=67	=67	=67
8.D\L 8.B-	.	8.f/L 8.b-	.
16E\Jk 16B-	.	16e/Jk 16g	.
4C#X\ 4A	.	4e/ 4a	.
4D\ 4A	.	4d/ 4f	.
!!LO:LB:g=original	!	!
=68	=68	=68	=68
*	*	*^	*
2BB-/ 2E	.	8gM/L	2.d\	.
.	.	8f/J	.	.
.	.	4.g/	.	.
4BB-/ 4E	.	.	.	.
.	.	8g#X/	.	.
=69	=69	=69	=69	=69
2AA/ 2E	.	8g#X/L	2.c#X\	.
!	!	!LO:TUP:b:problem:klamra łukowa	!	!
.	.	24a/L	.	.
.	.	24cc/	.	.
.	.	24b-/JJ	.	.
.	.	4a/	.	.
4AA/ 4E	.	4e/	.	.
=70	=70	=70	=70	=70
!	!	!LO:TUP:b:problem:klamra łukowa	!	!
2BB-/ 2E	.	20g/LL	2.d\	.
.	.	20g/	.	.
.	.	20a/	.	.
.	.	20g/	.	.
.	.	20f#X/JJ	.	.
.	.	4.g/	.	.
4BB-/ 4E	.	.	.	.
.	.	8g#X/	.	.
=71	=71	=71	=71	=71
2.AA/ 2.E	.	(8g#X^/L	2.c#X\	.
.	.	24a/L	.	.
.	.	24ee/	.	.
.	.	24cc#X/JJ)	.	.
!	!	!LO:TUP:b:problem:klamra łukowa	!	!
.	.	6b-/	.	.
.	.	6a/	.	.
.	.	6e/	.	.
=72	=72	=72	=72	=72
2BB-/ 2E	.	(12gn/L	2d\	.
.	.	12d#X/	.	.
.	.	12e/	.	.
.	.	12f/	.	.
.	.	12f#X/	.	.
.	.	12g/	.	.
4BB-/ 4E	.	12g#X/	4d#\	.
.	.	12ee/)	.	.
.	.	24r	.	.
.	.	24g#/Jk	.	.
*	*	*v	*v	*
!!LO:LB:g=original	!	!
=73	=73	=73	=73
4AA/ 4E	.	8.c#X/L 8.a	.
.	.	(16a/Jk	.
4r	.	4..aa\)	.
4A\ 4d 4f	.	.	.
.	.	(16a/	.
=74	=74	=74	=74
4G\ 4A 4c#X 4e	.	8.aa\L)	pp
.	.	(16a\Jk	.
4AAA/	.	4..aa\)	.
4F\ 4A 4d	.	.	.
.	.	(16a/	.
=75	=75	=75	=75
4E\ 4A 4c#X	.	8.aa\L)	.
.	.	(16a\Jk	.
4AAA/	.	4..aa\)	.
[4D\ 4F 4A [4Bn	.	.	.
.	.	(16a/	.
=76	=76	=76	=76
2D\] 2F 2A 2B]	.	[2aa\)	.
4AAA/	.	8.aa\L]	.
.	.	(16a\Jk	.
=77	=77	=77	=77
4C#X\ 4E 4A 4c#X	.	[2aa\)	.
4AAA/	.	.	.
4r	.	16aa\LL]	.
.	.	(16a\	.
.	.	16aa\)	.
.	.	[16aa\JJ	.
=78	=78	=78	=78
(<8qBBn/	.	.	.
*^	*	*	*
2.C/)	2.FF\	.	8aa\] 8aaa	pp
.	.	.	8r	.
.	.	.	(8qqBn/	.
.	.	.	[2A/) [2c [2f	.
!!LO:PB:g=original	!	!	!
=79	=79	=79	=79	=79
(<8qBBn/	.	.	.	.
2.C/)	2.FF\	.	4A/] 4c] 4f]	.
.	.	.	(<8qqBn/	.
.	.	.	2A/) 2c 2f	.
*v	*v	*	*	*
=80	=80	=80	=80
(4F\ 4c	.	(>4f/ 4a	p
4.A\ 4.c	.	4.f^/ 4.cc	.
8F\ 8c	.	8f/ 8a	.
=81	=81	=81	=81
.	.	8qa/	.
8A\L 8c	.	8e/L 8g	.
[8A\J [8c	.	[8f/J	.
2A\]) 2c]	.	2f/])	.
=82	=82	=82	=82
(<8qBBn/	.	.	.
*^	*	*	*
2.C/)	2.FF\	.	4r	pp
.	.	.	(<8qBn/	.
.	.	.	[2A/) [2c [2f	.
=83	=83	=83	=83	=83
8qBBn/	.	.	.	.
2.C/	2.FF\	.	4A/] 4c] 4f]	.
.	.	.	(<8qBn/	.
.	.	.	2A/) 2c 2f	.
*v	*v	*	*	*
=84	=84	=84	=84
4DD/	.	(8.f/L	p <
.	.	16f/Jk	.
!	!	!LO:TX:b:i:t=rit.	!
4F\ 4A 4d	.	4.dd\ 4.ff	.
4AAA/ 4AA	.	.	.
.	.	8cc\ 8ee	.
.	.	8qf/	[ [[
!!LO:LB:g=original	!	!
=85	=85	=85	=85
.	.	[16qqf/LL	>
.	.	16qqcc/JJ 16qqee	.
*	*	*^	*
8BBB-/L 8BB-	.	8b-/L 8dd	[2f\]	.
[8FFF/J [8FF	.	[<8a/J [8cc	.	.
2FFF/] 2FF]	.	2a/]) 2cc]	.	.
.	.	.	8.f\L]	.
.	.	.	[16e^>\Jk	]
=86	=86	=86	=86	=86
*^	*	*	*	*
!	!	!	!LO:TX:B:a:t=a tempo	!	!
4ryy	4EE/	.	8a/L 8cc	2.e\_	.
.	.	.	16r	.	.
.	.	.	(16a/Jk 16cc	.	.
4e/	[>2E\	.	4cc/ 4ee	.	.
4d#X/	.	.	4a/ 4cc	.	.
*	*	*	*v	*v	*
=87	=87	=87	=87	=87
.	.	.	16qqbn/LL	.
.	.	.	16qqcc/JJ	.
4dn/	8.E\L]	.	8e/L]) 8g#X 8b	.
.	.	.	16r	.
.	[>16E\Jk	.	(>16f#X/Jk 16a	.
4d/	4E\]	.	4g#/ 4b	.
4c/	4A\	.	4a/ 4cc	.
*v	*v	*	*	*
=88	=88	=88	=88
8CC/	.	16fn/KL) 16a	.
.	.	16r	.
8r	.	8A/ 8c	.
(4.c^\	.	8c/ 8f	<
.	.	8f/ 8a	.
.	.	8a/ 8cc	.
8C/)	.	8a/J 8ff	.
=89	=89	=89	=89
8c\L	.	8cc\L 8aa	[
16r	.	16r	.
(16A\Jk 16c	.	(16b-\Jk 16gg	.
2F\) 2f	.	2a\) 2ff	.
!!LO:LB:g=original	!	!
=90||	=90||	=90||	=90||
*k[b-e-a-d-]	*	*k[b-e-a-d-]	*
.	.	(8qcc/	p
*^	*	*	*
4r	2FF\	.	8ff\L)	.
.	.	.	16r	.
.	.	.	(16ff\Jk	.
4C/ 4A-	.	.	4cc\)	.
.	.	.	(16qqcc/LL	.
.	.	.	16qqee-/JJ)	.
4BB-/ 4G	4r	.	4dd-^\	.
*v	*v	*	*	*
=91	=91	=91	=91
4FF/	.	&(2cc\	.
4C\ 4A-	.	.	.
4FF/	.	8b-/L	.
.	.	8a-/J	.
=92	=92	=92	=92
.	.	(<8qg/	.
*^	*	*	*
!LO:N:vis=2	!	!	!	!
4EEn/	2EE\)	.	8cc\L&)	.
.	.	.	16r	.
.	.	.	(16cc\Jk	.
4C\ 4G	.	.	4g/)	.
.	.	.	(16qqg/LL	.
.	.	.	16qqb-/JJ)	.
4BBn/	4FF\	.	4a-^>/	.
=93	=93	=93	=93	=93
4EEn/	4EE\yy	.	(2g/	.
4C\ 4G	4ryy	.	.	.
4EE-X/	4ryy	.	8g/L	.
.	.	.	8g-X/J)	.
*v	*v	*	*	*
=94	=94	=94	=94
.	.	(>16qqf/LL	<
.	.	16qqgn/JJ	.
4DDn/	.	8f/L	.
.	.	8en/	.
4Dn\ 4A- 4Bn	.	8f/	.
.	.	8g/	.
4DD/	.	8a-/	.
.	.	8b-X/J	[[
!!LO:LB:g=original	!	!
=95	=95	=95	=95
4EE-/	.	8bn\L)	.
.	.	16r	.
.	.	([<16cc\Jk	.
4E-\ 4A- 4e-	.	4.cc\] 4.ee- 4.ccc	sf
(4EE-/	.	.	.
.	.	8cc\ 8aa-	.
=96	=96	=96	=96
8E-\)	.	8ee-\L) 8gg	.
8r	.	16r	.
.	.	[16dd-\Jk [16ff	.
4E-\ 4A- 4d-	.	4f^<\ 4dd-] 4ff]	.
4E-\ 4B- 4d-	.	4g^<\ 4dd-	.
=97	=97	=97	=97
*	*	*^	*
4AA-/	.	2.cc^</	4a-\	.
4E-\ 4A- 4c	.	.	4r	.
4GG\ 4G	.	.	4B-/ 4en	.
=98	=98	=98	=98	=98
.	.	(<8qcc/	.	.
*^	*	*	*	*
4C/ 4A-	2FF\	.	8ff/L)	2f\	p
.	.	.	16r	.	.
.	.	.	(16ff'/Jk	.	.
4C/ 4A-	.	.	4cc/)	.	.
.	.	.	(>16qqcc/LL	.	.
.	.	.	16qqee-/JJ	.	.
4BB-/ 4G	4r	.	4dd-/)	4en\	.
*v	*v	*	*	*	*
=99	=99	=99	=99	=99
(4FF/	.	[4cc/	8f\	.
.	.	.	8r	.
*	*	*Xtuplet	*	*
4C\) 4A-	.	12cc'/L]	4ryy	>
.	.	(<12cc'/	.	.
.	.	12bn'/J	.	.
4FF/	.	12b-X'/L	4ryy	.
.	.	12an'/	.	.
.	.	12a-X'/J	.	.
*	*	*v	*v	*
=100	=100	=100	=100
.	.	8qg/	]
*^	*	*	*
4r	2EEn\	.	8cc\L)	.
.	.	.	16r	.
.	.	.	(16cc\Jk	.
4C/ 4G	.	.	4g/	.
4BBn/	4FF\	.	4a-^/)	.
*v	*v	*	*	*
!!LO:LB:g=original	!	!
=101	=101	=101	=101
(4EEn/	.	[4g/	.
8C\) 8G	.	16g/LL]	.
.	.	(16cc/	.
8r	.	16bn'/	>
.	.	16b-X'/JJ	.
8r	.	16an'/LL	.
.	.	16a-X'/	.
16r	.	16g'/	.
16EE-X/	.	16g-X'/JJ	]]
=102	=102	=102	=102
.	.	16qqf/LL	<
.	.	16qqgn/JJ	.
8DDn/	.	8f'/L)	.
8r	.	(8en/	.
4Dn\ 4A- 4Bn	.	8f/	.
.	.	8g/	.
8r	.	8a-/	.
16r	.	8b-X/J	[[
16DD-X/	.	.	.
=103	=103	=103	=103
8CC/	.	8bn\L)	.
8r	.	16r	.
.	.	[<16cc\Jk	.
2A-\ 2c 2f 2a-	.	(4.cc\] 4.aa- 4.ccc	>
.	.	8cc\ 8aa-	]]
=104	=104	=104	=104
*^	*	*	*
8CC/L	4ryy	.	8bn'\L) 8aa-	pp
16r	.	.	16r	.
*clefG2	*	*	*	*
[16c/Jk	.	.	(16b\Jk 16gg	.
4a-/	2c\]	.	4b\ 4ddn	.
4g/	.	.	4b-X\ 4een	.
*v	*v	*	*	*
*clefF4	*	*	*
=105	=105	=105	=105
4FF/	.	4a-\) 4ff	.
8F\ 8c 8a-	.	8ff\ 8ccc 8fff	.
8r	.	8r	.
4r	.	4r	.
!!LO:PB:g=original	!	!
=106||	=106||	=106||	=106||
.	.	(>8qcc/ 8qee-	.
*^	*	*^	*
4AAA-/	2ryy	.	8ccc\L)	2ryy	p
.	.	.	16r	.	.
.	.	.	(16ccc\Jk	.	.
4E-\ 4A- 4e-	.	.	4cc\) 4ee-	.	.
(8Bn/L	4A-\	.	(8ff/L	4a-\	.
8c/J)	.	.	24a-/L 24ff	.	.
.	.	.	24gg/	.	.
.	.	.	24ff/JJ	.	.
*v	*v	*	*	*	*
*	*	*v	*v	*
=107	=107	=107	=107
4E-\ 4d-	.	8g\L) 8ee-	.
!	!	!LO:TX:b:i:t=leggiero	!
.	.	(8a-'\ 8ff	<
4EE-/ 4E-	.	8b-'\ 8gg	.
.	.	8cc'\ 8aa-	.
(4E-\ 4G	.	8dd-'\ 8bb-	.
.	.	8ddn'\J 8bbn	[[
=108	=108	=108	=108
*^	*	*^	*
4AA-\) 4A-	2ryy	.	8ee-\L) 8ccc	2ryy	.
.	.	.	16r	.	.
.	.	.	(16ccc\Jk	.	.
4E-\ 4A- 4e-	.	.	4cc\) 4ee-	.	.
(8Bn/L	4A-\	.	(8ff/L	4a-\	.
8c/J)	.	.	24a-/L 24ff	.	.
.	.	.	24gg/	.	.
.	.	.	24ff/JJ	.	.
*v	*v	*	*	*	*
*	*	*v	*v	*
=109	=109	=109	=109
4E-\ 4d-	.	8g\L) 8ee-	.
!	!	!LO:TX:b:i:t=legg.	!
.	.	(8a-'\ 8ff	<
4EE-/ 4E-	.	8b-'\ 8gg	.
.	.	8cc'\ 8aa-	.
4E-\ 4G	.	8dd-'\ 8bb-	.
.	.	8ddn'\J 8bbn	[[
!!LO:LB:g=original	!	!
=110	=110	=110	=110
4AA-\ 4A-	.	8ee-\L) 8ccc	.
.	.	16r	.
.	.	(16ccc\Jk	.
4A-\ 4a-	.	4cc\) 4ee-	.
4A-\ 4g-X	.	(4cc\ 4een	.
=111	=111	=111	=111
4DD-/	.	8dd-\L) 8ff	.
.	.	16r	.
.	.	([16ff\Jk	.
2F\ 2A- 2d- 2f	.	4.ff^\] 4.ddd-	sf
.	.	8ee-\ 8ccc	.
*clefG2	*	*	*
=112	=112	=112	=112
.	.	16qqbb-/LL	.
(8qc/ 8qcc	.	16qqccc/JJ	.
8e-/L) 8g	.	8dd-\L) 8bb-	.
16r	.	16r	.
[16e-/Jk 16f#X	.	(16cc\Jk 16aan	<
4e-/] 4g	.	4dd-\ 4bb-	.
4e-/ 4g	.	4dd-\) 4bbn	[[
=113	=113	=113	=113
*	*	*^	*
8A-/ 8e- 8a-	.	[2ccc/	2.cc\	.
*clefF4	*	*	*	*
(8AA-\L	.	.	.	.
8E-\	.	.	.	.
8A-\	.	.	.	.
8c\	.	8.ccc/L]	.	.
8e-\J)	.	.	.	.
.	.	16ee-/Jk	.	.
!!LO:LB:g=original	!	!	!
=114	=114	=114	=114	=114
*^	*	*	*	*
(4a-/	2.A-\	.	8ccc/L	4cc\	.
.	.	.	16r	.	.
.	.	.	(16ccc/Jk	.	.
4g/	.	.	4cc\) 4ee-	4ryy	.
4g-X/)	.	.	(4cc\ 4een	4ryy	.
*v	*v	*	*	*	*
*	*	*v	*v	*
=115	=115	=115	=115
4DD-/	.	8.dd-\L) 8.ff	.
.	.	([<16ff\Jk	.
2F^\ 2A- 2d- 2f	.	4.ff^\] 4.ddd-	sf
.	.	8ee-\) 8ccc	>
=116	=116	=116	=116
!	!LO:HP:a:t=dim. molto	!	!
4GG/	>	(8.dd-M\L 8.bb-	.
.	.	16cc\Jk 16aa-	.
4G\ 4d-	.	4b-\ 4gg	.
4G\ 4dn	.	4bn\) 4ff	]]
=117	=117	=117	=117
!	!	!LO:TX:b:i:t=sempre	!
.	.	(>8qqcc/ 8qqeen	pp
*^	*	*	*
4C/	4ryy	.	8ccc\L)	.
.	.	.	16r	.
.	.	.	(16ccc\Jk	.
*clefG2	*	*	*tuplet	*
(4en/ 4g	2c\	.	[4cc\)	.
!	!	!	!LO:TUP:a:problem:klamra łukowa i cyfra 3	!
4f/) 4a-	.	.	24cc\LL]	.
.	.	.	24dd-\	.
.	.	.	24ee-X\	.
!	!	!	!LO:TUP:a:problem:klamra łukowa i cyfra 3	!
.	.	.	24ff\	.
.	.	.	24ee-\	.
.	.	.	24dd-\JJ	.
*clefF4	*	*	*	*
!!LO:LB:g=original	!	!	!	!
=118	=118	=118	=118	=118
.	.	.	(>8qqcc/	.
4CC/	4ryy	.	8ccc\L)	.
.	.	.	16r	.
.	.	.	(16ccc\Jk	.
*clefG2	*	*	*Xtuplet	*
(4en/ 4g	2c\	.	[4cc\)	.
4dn/) 4f	.	.	24cc\LL]	.
.	.	.	(24ff\	.
.	.	.	24gg\	.
.	.	.	24aa-\	.
.	.	.	24gg\	.
.	.	.	24ff\JJ)	.
*clefF4	*	*	*	*
=119	=119	=119	=119	=119
.	.	.	(>8qqeen/	.
4C/	4ryy	.	8ccc\L)	.
.	.	.	16r	.
.	.	.	(16ccc\Jk	.
*clefG2	*	*	*	*
(<4en/ 4g	2c\	.	[4cc\)	.
4f/) 4a-	.	.	24cc\LL]	.
.	.	.	(24dd-\	.
.	.	.	24ee-X\	.
.	.	.	24ff\	.
.	.	.	24ee-\	.
.	.	.	24dd-\JJ)	.
*clefF4	*	*	*	*
=120	=120	=120	=120	=120
.	.	.	(>8qqcc/	.
4CC/	4ryy	.	8ccc\L)	.
.	.	.	16r	.
.	.	.	(16ccc\Jk	.
*clefG2	*	*	*	*
(4en/ 4g	[2c\	.	[4cc\)	.
4dn/) 4f	.	.	24cc\LL]	.
.	.	.	(24ff\	.
.	.	.	24gg\	.
.	.	.	24aa-\	.
.	.	.	24gg\	.
.	.	.	24ff\JJ)	.
*v	*v	*	*	*
!!LO:LB:g=original	!	!	!
=121	=121	=121	=121
.	.	(>8qqeen/	.
8c/] 8en 8g	.	8ccc\L)	.
8r	.	16r	.
.	.	(16ccc\Jk	.
*clefF4	*	*	*
4CC/	.	8.cc\L)	.
.	.	(16dd-\Jk	.
*clefG2	*	*	*
[4c/	.	8.ccc\L)	.
.	.	(16ccc\Jk	.
=122	=122	=122	=122
*^	*	*	*
(4f/ 4a-	2.c\]	.	8.ddn\L)	.
.	.	.	(16ee-\Jk	.
4f#X/ 4an	.	.	4ccc\)	.
.	.	.	(>16qqeen/LL	.
.	.	.	16qqccc/JJ	.
4g/) 4b-	.	.	4ccc\) 4cccc	.
*clefF4	*	*	*	*
=123	=123	=123	=123	=123
.	.	.	(>8qcc/	.
4r	2FF\	.	8ff\L)	mf
.	.	.	16r	.
.	.	.	(16ff\Jk	.
4C/ 4A-	.	.	4cc\)	.
.	.	.	(>16qqcc/LL	.
.	.	.	16qqee-/JJ	.
4BB-/ 4G	4r	.	4dd-^<\)	.
*v	*v	*	*	*
=124	=124	=124	=124
!	!	!	!LO:TX:t=cresc.:dur=10e6s2h:ext=ud:problem:text with extention lines
4FF/	.	(2cc\	<
4C\ 4A-	.	.	.
4FF/	.	8b-/L	.
.	.	8a-/J	.
!!LO:PB:g=original	!	!	!
=125	=125	=125	=125
.	.	8qg/	.
*^	*	*	*
4r	2EEn\	.	8cc\L)	.
.	.	.	16r	.
.	.	.	(16cc\Jk	.
4C/ 4G	.	.	4g/	.
.	.	.	16qqg/LL	.
.	.	.	16qqb-/JJ	.
4BBn/	4FF\	.	4a-^/)	.
*v	*v	*	*	*
=126	=126	=126	=126
4EEn/	.	([2g/	.
4C\ 4G	.	.	.
4EE-X/	.	8g/L]	.
.	.	8g-X/J	.
=127	=127	=127	=127
.	.	16qqf/LL	.
.	.	16qqgn/JJ	.
4DDn/	.	16f/KL)	.
.	.	16r	.
.	.	(8en/	.
4Dn\ 4A- 4Bn	.	8f'/	.
.	.	8g'/	.
4DD/	.	8a-'/	.
.	.	8b-X'/J)	.
=128	=128	=128	=128
*	*	*tuplet	*
!	!	!LO:TUP:a:problem:klamra łukowa	!
4EE-/	.	20bn\LL	.
.	.	20r	.
.	.	20cc\	.
.	.	20ccc\	<
.	.	20cc\JJ	.
*	*	*8va	*
2E-^\ 2A- 2e-	.	4.eee-\ 4.cccc	.
.	.	8ccc\ 8aaa-	[
!!LO:LB:g=original	!	!	!
=129	=129	=129	=129
*	*	*^	*
!LO:TUP:a:problem:klamra łukowa	!	!LO:TUP:a:problem:klamra łukowa	!	!
6EE-/	.	24eee-\KL 24ggg	4ryy	.
.	.	24r	.	.
.	.	12ddd-\ 12fff	.	.
*	*	*X8va	*Xtuplet	*
12E-\	.	12ff#X\J	.	.
!LO:TUP:a:problem:klamra łukowa	!	!	!	!
12B-\L	.	6ddd-/	12gg\L	.
!	!	!	!LO:TX:t=P:problem: przy nucie n i -	!
12d-\	.	.	12ff-X\	.
12g\J	.	12ccc/	12ee-\J	.
8r	.	6bb-/	12ddn\L	.
.	.	.	12ee-\	.
8E-\	.	.	.	.
.	.	12bbn/	12dd-X\J	.
*	*	*v	*v	*
=130	=130	=130	=130
4AA-\ 4A-	.	[4cc\ [4ccc	.
*	*	*tuplet	*
!	!	!LO:TUP:a:problem:klamra łukowa	!
4E-\ 4A- 4c	.	12cc\L] 12ccc]	<
.	.	12bn\ 12bbn	.
.	.	[12cc\J [12ccc	.
8FF\L 8C	.	16cc\LL] 16ccc]	.
.	.	16ee-\ 16eee-	.
8En\J 8B-	.	16ddn\ 16dddn	.
.	.	16dd-X\JJ 16ddd-X	[[
=131	=131	=131	=131
.	.	(>8qcc/ 8qccc	.
*^	*	*	*
4FF\ 4F 4A-	4ryy	.	8ff\L) 8fff	f
.	.	.	16r	.
.	.	.	16ff\Jk 16fff	.
4AA-/ 4F	[2FF\	.	4cc\ 4ccc	.
.	.	.	(>8qeee-/	.
4BB-/ 4G	.	.	4dd-\) 4ddd-	.
!!LO:LB:g=original	!	!	!	!
=132	=132	=132	=132	=132
4C/ 4A-	4FF\]	.	[4cc\ [4ccc	.
*	*	*	*Xtuplet	*
4FFF/ 4FF	4ryy	.	12cc\L] 12ccc]	.
.	.	.	(12cc'\ 12ccc	.
.	.	.	12bn'\J 12bbn	.
4FF/ 4C 4A-	4ryy	.	12b'\L 12bb	.
.	.	.	12an'\ 12aan	.
.	.	.	12a-X'\J) 12aa-X	.
*v	*v	*	*	*
=133	=133	=133	=133
.	.	(>8qg/ 8qgg	.
4EEn/ 4C 4G	.	8cc\L) 8ccc	.
.	.	16r	.
.	.	16cc\Jk 16ccc	.
4EE/	.	4g\ 4gg	.
.	.	(>8qbb-/	.
4EE/ 4BBn 4F	.	4a-\) 4aa-	.
=134	=134	=134	=134
4EEn/ 4C 4G	.	4.g\ 4.gg	.
4EEEn/ 4EE	.	.	.
.	.	8g\L 8gg	.
4EEE-X/ 4EE-X	.	8g\ 8gg	.
.	.	8g-X\J 8gg-X	.
=135	=135	=135	=135
.	.	(16qqff/LL	.
.	.	16qqgg/JJ	.
8DDDn/ 8DDn	.	8f\L 8ff)	.
8r	.	8en\ 8een	.
4Dn\ 4A- 4Bn	.	8f\ 8ff	.
.	.	8gn\ 8ggn	.
(4DDD-X/ 4DD-X	.	8a-\ 8aa-	.
.	.	8b-X\J 8bb-X	.
!!LO:LB:g=original	!	!	!
=136	=136	=136	=136
8CCC/) 8CC	.	32bn\KLL 32bbn	.
.	.	32r	.
.	.	16cc\	.
8r	.	16aa-\ 16ccc	.
.	.	16ccc\JJ	.
*	*	*8va	*
4F\ 4A- 4d-	.	8aaa-\ 8cccc	.
*	*	*X8va	*
.	.	8r	.
8r	.	[4cc\ [4ccc	sf
8CC/ 8C	.	.	.
=137	=137	=137	=137
4CC-X/ 4C-X	.	32cc\KLL] 32ccc]	.
.	.	32r	.
.	.	(16dd-\	.
.	.	16aa-\ 16ddd-	.
.	.	16ddd-\JJ)	.
*	*	*8va	*
4D-\ 4F 4d-	.	8aaa-\ 8dddd-	.
*	*	*X8va	*
.	.	8r	.
8r	.	[4d-\ [4dd-	sf
8CC-/ 8C-	.	.	.
=138	=138	=138	=138
4BBB-/ 4BB-	.	32d-\KLL] 32dd-]	.
.	.	32r	.
.	.	(16d-\	.
.	.	16g-X\ 16dd-	.
.	.	16dd-\JJ	.
*	*	*8va	*
4D-\ 4G-X 4d-	.	8ggg-X\) 8dddd-	.
*	*	*X8va	*
.	.	8r	.
4BBB-/ 4BB-	.	16r	.
.	.	(16en\LL	.
.	.	16gn\ 16een	.
.	.	16ee\JJ	.
=139	=139	=139	=139
4BB-\ 4Gn 4d-	.	8ggn\) 8eeen	.
.	.	8r	.
4AAA-/ 4AA-	.	16r	.
.	.	(16f\LL	.
.	.	16cc\ 16ff	.
.	.	16ff\JJ	.
8AA-/ 8C 8F 8c	.	8ccc\) 8fff	.
16r;	.	16r;	.
16C\ 16c	.	16r	.
!!LO:LB:g=original	!	!	!
=140	=140	=140	=140
8D-\L 8d-	.	4r	ff
16r	.	.	.
(16D-\Jk 16d-	.	.	.
2EEn^>/ 2En	.	4r	.
.	.	(4B-^>/ 4d- 4g	.
=141	=141	=141	=141
8FF\L) 8F	.	8A-/) 8c 8a-	.
16r	.	8r	.
(16BBn\Jk 16Bn	.	.	.
2DD-^>/ 2D-	.	4r	.
.	.	(4f^>\ 4bn 4ff	.
=142	=142	=142	=142
8CC\L) 8C	.	8a-\) 8cc	.
16r	.	8r	.
(16C\Jk 16c	.	.	.
4..CCC/) 4..CC	.	4r	.
.	.	8r	.
.	.	16r	.
(16CCC/ 16CC	.	16g\ 16b- 16een	.
=143	=143	=143	=143
8FFF/)	.	8f\ 8a- 8ff	.
8r	.	8r	.
!LO:TX:b:B:t=Fine.	!	!	!
8FF:\ 8C: 8A-: 8c: 8a-: 8ff:	.	8cc:\ 8ff: 8ccc: 8fff:	.
8r	.	8r	.
==	==	==	==
*-	*-	*-	*-
!!!system-decoration: {(s1,s2)}
!!!RDF**kern: > = above
!!!RDF**kern: < = below
!!!ENC: Berenika Jozajtis
!!!END: 2022-07-22
!!!ENC: Natalia Wrzos
!!!END: 2022-08-17
